X:1
T:Tyranty,  My Son
M:3/4
L:1/4
K:C
 G| B B B| A2 c| B B B| B2 G| d d d| d- B G| B c A| G2 G| B B B| AA/2-A/2c/2-c/2|\
 B B B| B2 d/2d/2| d d d| d B G| B c A| G2||
